X: 8
T: The Rakes Of Mallow
R: polka
M: 2/4
L: 1/8
K: Gmaj
GB GB | GB c/B/A/G/ | FA DA | DA A/G/F/A/ |GB DB | GB d>B | c/B/A/G/ F/G/A/c/ | BG G>D |GB GB | GB c/B/A/G/ | FA DA | FA d/c/B/A/ |GB DB | GB d>B | c/B/A/G/ F/G/A/c/ | BG G ||gf/e/ dd/c/ | Bc de/f/ | gf/e/ dc/B/ | eA Af/a/ |gf/e/ dd/c/ | Bc dB/d/ | c/B/A/G/ F/G/A/c/ | BG Gf/a/ |gf/e/ dd/c/ | Bc de/f/ | gf/e/ dc/B/ | eA Af/f/ |gf/e/ dd/c/ | Bg dB/d/ | c/B/A/G/ F/e/d/c/ | BG G |]


Tune 85	Setting 12599

